X: 21392
T: SOME LOVE TO ROAM
C: Henry Russell.
Q: "Moderately quick and with spirit."
%R: waltz, march
B: W. Hamilton "Universal Tune-Book" Vol. 2 Glasgow 1846 p.139 #2
S: http://s3-eu-west-1.amazonaws.com/itma.dl.printmaterial/book_pdfs/hamiltonvol2web.pdf
Z: 2016 John Chambers <jc:trillian.mit.edu>
M: 3/4
L: 1/8
K: G
% - - - - - - - - - - - - - - - - - - - - - - - - -
d |\
dB G2 AB | dG B2 c>B | "^>"B3 A BA | (G2 D2) B>c |\
dB G2 A>B | DG B2 cB | A3B/A/ EF | D2 z2 B>c |
dB G2 A>B | DG B2 c>B | A3 B/A/ D (B/A/) | G2 z2 (F>G) |\
AF D2 G>A | BG D3 B | A3 B/A/^GA | (d2 HB2) GA |
BB/B/ B2 BB | BB/B/ B2 B>c | !f!d3 (B/G/) D (B/A/) | G2 z2 (GA) |\
BB/B/ B2 BB | BB/B/ B2 Bc | !ff!d3 (B/G/) D (B/A/) | G3 !p!(D GB) |
A3 (D FA) | G3 (D GB) | A2 (dddd !ff!| Hd2) z2 zd |\
dB G2 A>B | DG B2 c>B | B3 A BA | (G2 D2) B>c |
dB G2 AB | DG B2 c>B | A3 B/A/Dd | G3 (c/B/A/G/F/E/) |\
D3 (E/D/^C/D/E/F/) | G3 (=c/B/A/G/F/E/) | D3 E/D/ Hd2F2 | G2 z2 z |]
% - - - - - - - - - - - - - - - - - - - - - - - - -
